src/pages/Home/images/twitter.svg

<svg width="32" height="32" viewBox="0 0 32 32" fill="none" xmlns="http://www.w3.org/2000/svg">
<circle cx="16" cy="16" r="16" fill="#BD1B7F"/>
<path d="M20.5205 9.14288H22.847L17.7643 14.9521L23.7437 22.8572H19.0619L15.3949 18.0628L11.199 22.8572H8.87114L14.3076 16.6435L8.57153 9.14288H13.3722L16.6869 13.5251L20.5205 9.14288ZM19.704 21.4646H20.9931L12.6717 10.4623H11.2883L19.704 21.4646Z" fill="white"/>
</svg>

<svg width="32" height="32" fill="none" xmlns="http://www.w3.org/2000/svg"><circle cx="16" cy="16" r="16" fill="#BD1B7F"/><path d="M20.52 9.143h2.327l-5.083 5.81 5.98 7.904h-4.682l-3.667-4.794-4.196 4.794H8.871l5.437-6.213-5.736-7.501h4.8l3.315 4.382 3.833-4.382Zm-.816 12.322h1.29l-8.322-11.003h-1.384l8.416 11.003Z" fill="#fff"/></svg>
